src/status/symbolic/process-error-symbolic.svg

<?xml version="1.0" encoding="UTF-8" standalone="no"?>
<svg
   xmlns:dc="http://purl.org/dc/elements/1.1/"
   xmlns:cc="http://creativecommons.org/ns#"
   xmlns:rdf="http://www.w3.org/1999/02/22-rdf-syntax-ns#"
   xmlns:svg="http://www.w3.org/2000/svg"
   xmlns="http://www.w3.org/2000/svg"
   xmlns:sodipodi="http://sodipodi.sourceforge.net/DTD/sodipodi-0.dtd"
   xmlns:inkscape="http://www.inkscape.org/namespaces/inkscape"
   id="svg6"
   version="1.1"
   width="16"
   height="16"
   sodipodi:docname="process-error-symbolic.svg"
   inkscape:version="0.92.2 (5c3e80d, 2017-08-06)">
  <sodipodi:namedview
     pagecolor="#ffffff"
     bordercolor="#363636"
     borderopacity="1"
     objecttolerance="10"
     gridtolerance="10"
     guidetolerance="10"
     inkscape:pageopacity="0"
     inkscape:pageshadow="2"
     inkscape:window-width="758"
     inkscape:window-height="526"
     id="namedview6"
     showgrid="false"
     inkscape:zoom="14.75"
     inkscape:cx="8"
     inkscape:cy="8"
     inkscape:window-x="0"
     inkscape:window-y="60"
     inkscape:window-maximized="0"
     inkscape:current-layer="svg6" />
  <metadata
     id="metadata12">
    <rdf:RDF>
      <cc:Work
         rdf:about="">
        <dc:format>image/svg+xml</dc:format>
        <dc:type
           rdf:resource="http://purl.org/dc/dcmitype/StillImage" />
        <dc:title />
      </cc:Work>
    </rdf:RDF>
  </metadata>
  <defs
     id="defs10" />
  <path
     id="path2"
     class="error"
     d="M 8 1 C 4.134 1 1 4.13401 1 8 C 1 11.86599 4.134 15 8 15 C 11.866 15 15 11.86599 15 8 C 15 4.13401 11.866 1 8 1 z M 7 3 L 9 3 L 9 7 L 8.5 10 L 7.5 10 L 7 7 L 7 3 z M 8 11 A 1 1 0 0 1 8 13 A 1 1 0 0 1 8 11 z "
     style="color:#000000;overflow:visible;fill:#ef2929;marker:none;font-variant-east_asian:normal;opacity:1;vector-effect:none;fill-opacity:1;stroke-width:1;stroke-linecap:butt;stroke-linejoin:miter;stroke-miterlimit:4;stroke-dasharray:none;stroke-dashoffset:0;stroke-opacity:1" />
</svg>

<svg version="1.1" viewBox="0 0 16 16" xmlns="http://www.w3.org/2000/svg">
 <path class="error" d="m8 1c-3.866 0-7 3.134-7 7s3.134 7 7 7 7-3.134 7-7-3.134-7-7-7zm-1 2h2v4l-0.5 3h-1l-0.5-3v-4zm1 8a1 1 0 0 1 0 2 1 1 0 0 1 0-2z" color="#000000" fill="#ef2929" style="font-variant-east_asian:normal"/>
</svg>
